X: 1353
T: An Pointe
R: hornpipe
M: 4/4
K: Gmajor
(3DEF|:G2 GF GABG|A2AB AFDc|BAGE Bdge|fdcA BdAF|
G2GF GABG|A2Bd AFDc|BAGE FEDc|1 BdAd BGAF:|2 BdAd BGGc||
|:Bdge fgag|bgde =fcA^F|D2DE FGAB|c2cB cAdc|
Bdge fgag|bggf gedc|BdBd cADF|1 AGGF GBdc:|2 AGGF G2||

